src/images/sprite.svg

<svg aria-hidden="true" style="position: absolute; width: 0; height: 0; overflow: hidden;" version="1.1" xmlns="http://www.w3.org/2000/svg" xmlns:xlink="http://www.w3.org/1999/xlink">
<defs>
<symbol id="icon-arrow" viewBox="0 0 82 32">
<path d="M81.414 17.414c0.362-0.362 0.586-0.862 0.586-1.414s-0.224-1.052-0.586-1.414l-12.728-12.728c-0.364-0.377-0.874-0.611-1.439-0.611-1.105 0-2 0.895-2 2 0 0.565 0.234 1.074 0.61 1.438l0.001 0.001 11.314 11.314-11.314 11.314c-0.347 0.359-0.561 0.849-0.561 1.389 0 1.105 0.895 2 2 2 0.54 0 1.030-0.214 1.39-0.562l-0.001 0.001 12.728-12.728zM0 18h80v-4h-80v4z"></path>
</symbol>
<symbol id="icon-burger" viewBox="0 0 50 32">
<path fill="none" stroke="#fff" style="stroke: var(--color1, #fff)" stroke-linejoin="miter" stroke-linecap="round" stroke-miterlimit="4" stroke-width="4.5714" d="M2.286 2.286h45.714M2.286 16h45.714M2.286 29.714h45.714"></path>
</symbol>
<symbol id="icon-cross" viewBox="0 0 32 32">
<path fill="#fcfcfc" style="fill: var(--color2, #fcfcfc)" d="M28.614 1.13l-12.614 12.614-12.614-12.614c-0.303-0.278-0.702-0.427-1.113-0.418s-0.803 0.176-1.094 0.467c-0.291 0.291-0.458 0.683-0.467 1.094s0.141 0.81 0.418 1.113l12.608 12.614-12.611 12.611c-0.154 0.147-0.277 0.323-0.362 0.518s-0.13 0.405-0.133 0.618 0.037 0.424 0.117 0.621c0.080 0.197 0.199 0.376 0.349 0.527s0.329 0.27 0.526 0.35 0.408 0.121 0.621 0.118c0.213-0.002 0.423-0.047 0.618-0.132s0.372-0.208 0.519-0.361l12.618-12.611 12.614 12.614c0.303 0.278 0.702 0.428 1.113 0.418s0.803-0.176 1.094-0.467c0.291-0.291 0.458-0.683 0.467-1.094s-0.141-0.81-0.418-1.113l-12.614-12.614 12.614-12.618c0.154-0.147 0.277-0.323 0.362-0.518s0.13-0.405 0.133-0.618c0.003-0.213-0.037-0.424-0.117-0.621s-0.199-0.376-0.349-0.527c-0.15-0.151-0.329-0.27-0.526-0.35s-0.408-0.121-0.621-0.118-0.423 0.047-0.618 0.132c-0.195 0.085-0.372 0.208-0.519 0.362v0.003z"></path>
</symbol>
<symbol id="icon-facebook" viewBox="0 0 16 32">
<path fill="#84a178" style="fill: var(--color3, #84a178)" d="M14.143 15.971h-4.033v14.865h-6.112v-14.865h-2.906v-5.222h2.906v-3.382c0-2.417 1.142-6.204 6.167-6.204l4.527 0.019v5.072h-3.284c-0.538 0-1.297 0.272-1.297 1.425v3.073h4.567l-0.534 5.219z"></path>
</symbol>
<symbol id="icon-github" viewBox="0 0 32 32">
<path fill="#84a178" style="fill: var(--color3, #84a178)" d="M16 0c-8.789 0-16 7.211-16 16 0 7.499 5.262 14.312 12.25 16v-5.293c-0.276 0.070-0.593 0.109-0.919 0.109-0.398 0-0.781-0.059-1.143-0.169l0.028 0.007c-0.946-0.278-1.714-0.909-2.285-1.869-0.363-0.613-1.008-1.28-1.68-1.23l-0.165-1.867c1.454-0.125 2.71 0.886 3.456 2.139 0.333 0.558 0.715 0.885 1.205 1.029 0.472 0.141 0.981 0.074 1.573-0.136 0.149-1.186 0.693-1.629 1.104-2.256-4.168-0.621-5.829-2.832-6.488-4.576-0.874-2.318-0.405-5.213 1.139-7.043 0.030-0.035 0.085-0.128 0.064-0.192-0.709-2.141 0.154-3.91 0.186-4.098 0.818 0.24 0.95-0.243 3.552 1.336l0.448 0.27c0.189 0.112 0.128 0.048 0.317 0.032 1.003-0.282 2.157-0.452 3.349-0.469l0.010-0c1.136 0.014 2.272 0.176 3.403 0.483l0.146 0.016c-0.013-0.003 0.040-0.010 0.128-0.062 3.248-1.968 3.131-1.325 4.003-1.608 0.032 0.189 0.882 1.987 0.182 4.099-0.096 0.291 2.816 2.957 1.202 7.235-0.659 1.744-2.32 3.957-6.486 4.578 0.534 0.816 1.176 1.248 1.173 2.928v6.606c6.986-1.688 12.25-8.501 12.25-16 0-8.789-7.211-16-16-16z"></path>
</symbol>
<symbol id="icon-greater-than" viewBox="0 0 32 32">
<path stroke-linejoin="round" stroke-linecap="round" stroke-miterlimit="4" stroke-width="5.3333" d="M10.667 5.333l13.195 10.667-13.195 10.667"></path>
</symbol>
<symbol id="icon-telegram" viewBox="0 0 44 32">
<path fill="#84a178" style="fill: var(--color3, #84a178)" d="M17.346 21.048l-0.676 8.86c0.966 0 1.384-0.388 1.886-0.852l4.528-4.040 9.38 6.414c1.72 0.894 2.932 0.422 3.396-1.478l6.16-26.932c0.546-2.372-0.92-3.3-2.596-2.72l-36.194 12.934c-2.47 0.896-2.432 2.18-0.42 2.766l9.254 2.686 21.494-12.552c1.010-0.626 1.93-0.28 1.174 0.346l-17.386 14.57z"></path>
</symbol>
</defs>
</svg>

<svg aria-hidden="true" style="position:absolute;width:0;height:0;overflow:hidden" xmlns="http://www.w3.org/2000/svg"><defs><symbol id="icon-arrow" viewBox="0 0 82 32"><path d="M81.414 17.414c.362-.362.586-.862.586-1.414s-.224-1.052-.586-1.414L68.686 1.858a2 2 0 1 0-2.829 2.827l.001.001L77.172 16 65.858 27.314a2 2 0 0 0 2.829 2.827l-.001.001 12.728-12.728zM0 18h80v-4H0v4z"/></symbol><symbol id="icon-burger" viewBox="0 0 50 32"><path fill="none" stroke="#fff" style="stroke:var(--color1, #fff)" stroke-linecap="round" stroke-width="4.571" d="M2.286 2.286H48M2.286 16H48M2.286 29.714H48"/></symbol><symbol id="icon-cross" viewBox="0 0 32 32"><path fill="#fcfcfc" style="fill:var(--color2, #fcfcfc)" d="M28.614 1.13 16 13.744 3.386 1.13a1.594 1.594 0 0 0-2.207.049 1.596 1.596 0 0 0-.049 2.207L13.738 16 1.127 28.611a1.6 1.6 0 0 0-.029 2.284 1.579 1.579 0 0 0 1.147.468 1.616 1.616 0 0 0 1.137-.493L16 18.259l12.614 12.614a1.6 1.6 0 0 0 2.207-.049 1.596 1.596 0 0 0 .049-2.207L18.256 16.003 30.87 3.385a1.6 1.6 0 0 0 .029-2.284 1.579 1.579 0 0 0-1.147-.468 1.601 1.601 0 0 0-1.137.494v.003z"/></symbol><symbol id="icon-facebook" viewBox="0 0 16 32"><path fill="#84a178" style="fill:var(--color3, #84a178)" d="M14.143 15.971H10.11v14.865H3.998V15.971H1.092v-5.222h2.906V7.367c0-2.417 1.142-6.204 6.167-6.204l4.527.019v5.072h-3.284c-.538 0-1.297.272-1.297 1.425v3.073h4.567l-.534 5.219z"/></symbol><symbol id="icon-github" viewBox="0 0 32 32"><path fill="#84a178" style="fill:var(--color3, #84a178)" d="M16 0C7.211 0 0 7.211 0 16c0 7.499 5.262 14.312 12.25 16v-5.293a3.921 3.921 0 0 1-2.062-.06l.028.007c-.946-.278-1.714-.909-2.285-1.869-.363-.613-1.008-1.28-1.68-1.23l-.165-1.867c1.454-.125 2.71.886 3.456 2.139.333.558.715.885 1.205 1.029.472.141.981.074 1.573-.136.149-1.186.693-1.629 1.104-2.256-4.168-.621-5.829-2.832-6.488-4.576-.874-2.318-.405-5.213 1.139-7.043.03-.035.085-.128.064-.192-.709-2.141.154-3.91.186-4.098.818.24.95-.243 3.552 1.336l.448.27c.189.112.128.048.317.032a13.246 13.246 0 0 1 3.349-.469h.01c1.136.014 2.272.176 3.403.483l.146.016c-.013-.003.04-.01.128-.062 3.248-1.968 3.131-1.325 4.003-1.608.032.189.882 1.987.182 4.099-.096.291 2.816 2.957 1.202 7.235-.659 1.744-2.32 3.957-6.486 4.578.534.816 1.176 1.248 1.173 2.928v6.606c6.986-1.688 12.25-8.501 12.25-16 0-8.789-7.211-16-16-16z"/></symbol><symbol id="icon-greater-than" viewBox="0 0 32 32"><path stroke-linejoin="round" stroke-linecap="round" stroke-width="5.333" d="M10.667 5.333 23.862 16 10.667 26.667"/></symbol><symbol id="icon-telegram" viewBox="0 0 44 32"><path fill="#84a178" style="fill:var(--color3, #84a178)" d="m17.346 21.048-.676 8.86c.966 0 1.384-.388 1.886-.852l4.528-4.04 9.38 6.414c1.72.894 2.932.422 3.396-1.478L42.02 3.02C42.566.648 41.1-.28 39.424.3L3.23 13.234C.76 14.13.798 15.414 2.81 16l9.254 2.686L33.558 6.134c1.01-.626 1.93-.28 1.174.346L17.346 21.05z"/></symbol></defs></svg>
